packages/ffe-icons/icons/filled/md/water_damage.svg

<svg xmlns="http://www.w3.org/2000/svg" height="24" viewBox="0 -960 960 960" width="24"><path d="M292.309-180.001q-29.923 0-51.115-21.193-21.193-21.192-21.193-51.115v-296.385L120-473.231q-9.923 7.307-22 5.884-12.076-1.423-19.768-11.961Q70.54-489.231 72.27-501q1.731-11.769 11.654-19.461L436-787.23q19.693-15.076 44-15.076t44 15.076l352.461 266.154q9.923 7.692 11.653 19.461 1.731 11.769-5.961 22.307-7.692 10.538-19.461 11.653-11.769 1.116-22.307-6.192l-100.386-75.232v296.77q0 29.923-21.193 51.115-21.192 21.193-51.115 21.193H292.309Zm187.691-150q29.154 0 49.576-20.423 20.423-20.422 20.423-49.576 0-23.154-12.692-48.653-12.692-25.5-57.307-89.807-45.384 66.23-57.692 90.768-12.307 24.538-12.307 47.692 0 29.154 20.423 49.576 20.422 20.423 49.576 20.423Z"/></svg>

<svg xmlns="http://www.w3.org/2000/svg" height="24" viewBox="0 -960 960 960" width="24"><path d="M292.31-180q-29.92 0-51.12-21.19Q220-222.39 220-252.31v-296.38l-100 75.46q-9.92 7.31-22 5.88-12.08-1.42-19.77-11.96-7.69-9.92-5.96-21.69 1.73-11.77 11.65-19.46L436-787.23q19.69-15.08 44-15.08t44 15.08l352.46 266.15q9.92 7.7 11.65 19.46 1.73 11.77-5.96 22.31-7.69 10.54-19.46 11.66-11.77 1.11-22.31-6.2L740-549.08v296.77q0 29.92-21.19 51.12Q697.61-180 667.69-180H292.31ZM480-330q29.15 0 49.58-20.42Q550-370.85 550-400q0-23.15-12.69-48.65-12.7-25.5-57.31-89.81-45.38 66.23-57.69 90.77Q410-423.15 410-400q0 29.15 20.42 49.58Q450.85-330 480-330Z"/></svg>
